icons/inbox-arrow-left-outline.svg

<svg xmlns="http://www.w3.org/2000/svg" width="24" height="24" viewBox="0 0 24 24">
  <path d="M19,2 C20.5976809,2 21.9036609,3.24891996 21.9949073,4.82372721 L22,5 L22,19 C22,20.5976809 20.75108,21.9036609 19.1762728,21.9949073 L19,22 L5,22 C3.40231912,22 2.09633912,20.75108 2.00509269,19.1762728 L2,19 L2,5 C2,3.40231912 3.24891996,2.09633912 4.82372721,2.00509269 L5,2 L19,2 Z M19,4 L5,4 C4.48716416,4 4.06449284,4.38604019 4.00672773,4.88337887 L4,5 L4,14 L6,14 C7.1045695,14 8,14.8954305 8,16 C8,17.1045695 8.8954305,18 10,18 L14,18 C15.1045695,18 16,17.1045695 16,16 C16,14.8954305 16.8954305,14 18,14 L20,14 L20,5 C20,4.48716416 19.6139598,4.06449284 19.1166211,4.00672773 L19,4 Z M8.001,10.059 L8.002,10.059 L8,10.018 L8,10 L8.00004511,9.99040127 L8.00018018,9.98082404 L8.0017331,9.94096861 C8.00232561,9.93088722 8.00307004,9.92081308 8.00399798,9.90996805 L8.00399798,9.90996805 L8.0110178,9.85153313 C8.01362808,9.83405099 8.01670217,9.81662474 8.02016515,9.7992059 C8.0246398,9.77725392 8.02983363,9.75556352 8.03584514,9.73400703 C8.04009773,9.71853672 8.04472872,9.70314866 8.04954668,9.68826359 C8.05612249,9.66820232 8.06331574,9.6484208 8.07122549,9.62866398 L8.07122549,9.62866398 L8.09365378,9.57690085 C8.10337664,9.5561086 8.11379392,9.53570605 8.12467117,9.5159379 L8.12467117,9.5159379 L8.14606743,9.47933981 C8.1617187,9.45372505 8.17849009,9.42886931 8.19633458,9.40469339 L8.19633458,9.40469339 L8.22,9.374 L8.216,9.378 L8.21968877,9.37455101 L8.232,9.359 L8.24220802,9.34743396 L8.24220802,9.34743396 L8.29289322,9.29289322 L11.2928932,6.29289322 L11.3871006,6.20970461 C11.7793918,5.90467972 12.3466228,5.93240926 12.7071068,6.29289322 C13.0976311,6.68341751 13.0976311,7.31658249 12.7071068,7.70710678 L12.7071068,7.70710678 L11.415,9 L15,9 L15.1166211,9.00672773 C15.6139598,9.06449284 16,9.48716416 16,10 C16,10.5522847 15.5522847,11 15,11 L15,11 L11.415,11 L12.7071068,12.2928932 L12.7902954,12.3871006 C13.0953203,12.7793918 13.0675907,13.3466228 12.7071068,13.7071068 C12.3165825,14.0976311 11.6834175,14.0976311 11.2928932,13.7071068 L11.2928932,13.7071068 L8.29289322,10.7071068 L8.21968877,10.625449 C8.2173721,10.6225624 8.21507113,10.6196628 8.20970461,10.6128994 C8.20517454,10.6070733 8.20071786,10.6012086 8.19631351,10.5951593 C8.17849009,10.5711307 8.1617187,10.546275 8.14599545,10.5207088 C8.13860692,10.5086131 8.13149883,10.4963944 8.12487577,10.484277 C8.11379392,10.4642939 8.10337664,10.4438914 8.09367336,10.4232215 L8.09367336,10.4232215 L8.07110396,10.3710585 C8.06331574,10.3515792 8.05612249,10.3317977 8.04973809,10.3121425 C8.04472872,10.2968513 8.04009773,10.2814633 8.03572097,10.2658396 C8.02983363,10.2444365 8.0246398,10.2227461 8.02024007,10.2007258 C8.01670217,10.1833753 8.01362808,10.165949 8.01101934,10.1489612 C8.00376119,10.1003621 8,10.0506203 8,10 L8.001,10.059 Z"/>
</svg>

<svg xmlns="http://www.w3.org/2000/svg" viewBox="0 0 24 24">
  <path d="M19 2a3 3 0 0 1 3 2.82V19a3 3 0 0 1-2.82 3H5a3 3 0 0 1-3-2.82V5a3 3 0 0 1 2.82-3H19zm0 2H5a1 1 0 0 0-1 .88V14h2a2 2 0 0 1 2 2c0 1.1.9 2 2 2h4a2 2 0 0 0 2-2c0-1.1.9-2 2-2h2V5a1 1 0 0 0-.88-1H19zM8 10.06V9.9l.01-.06a1.1 1.1 0 0 1 .06-.22l.02-.05.03-.06.03-.04.05-.08.02-.03.01-.01.01-.01.05-.06 3-3 .1-.08a1 1 0 0 1 1.32 1.5L11.4 9h3.71a1 1 0 0 1-.12 2H11.4l1.3 1.3.08.09a1 1 0 0 1-1.5 1.32l-3-3-.07-.08a3.01 3.01 0 0 1-.1-.15 1.02 1.02 0 0 1-.03-.06l-.02-.05A.95.95 0 0 1 8 10v.06z"/>
</svg>
